src/assets/icon-restoratives.svg

<svg xmlns="http://www.w3.org/2000/svg" width="106" height="107" viewBox="0 0 106 107" fill="none"><g clip-path="url(#clip0_150_337)"><path d="M52.993 106.467C82.2603 106.467 105.986 82.7408 105.986 53.4735C105.986 24.2063 82.2603 0.480469 52.993 0.480469C23.7258 0.480469 0 24.2063 0 53.4735C0 82.7408 23.7258 106.467 52.993 106.467Z" fill="#306B4D"></path><path d="M58.2858 42.7993C58.2858 51.5434 65.3987 58.6564 74.1428 58.6564C82.887 58.6564 89.9999 51.5434 89.9999 42.7993C89.9999 39.336 88.903 36.045 86.8257 33.276C86.2861 32.5634 85.6847 31.8899 85.0345 31.2757C83.976 30.2686 82.3039 30.3126 81.2998 31.376C80.2957 32.4344 80.3397 34.1065 81.4007 35.1106C81.8364 35.5262 82.2416 35.9803 82.6034 36.4582C83.9839 38.2952 84.7142 40.4892 84.7142 42.7993C84.7142 48.6295 79.9731 53.3707 74.1428 53.3707C68.3126 53.3707 63.5715 48.6295 63.5715 42.7993C63.5715 36.9691 68.3126 32.2279 74.1428 32.2279C74.3091 32.2279 74.4539 32.1625 74.6122 32.1332C75.1989 32.2591 75.8253 32.2218 76.3985 31.9205C77.6862 31.2366 78.1794 29.6367 77.4955 28.346C75.7764 25.107 73.2164 22.5237 70.0935 20.8797C69.0845 20.345 68.0211 19.9196 66.937 19.6122C63.2567 18.5672 59.4549 18.8844 55.9372 20.5234C55.4935 20.73 55.0492 20.9494 54.6183 21.1792C53.4052 21.8136 52.2178 22.539 51.0927 23.3341C49.1132 24.725 46.6461 24.7305 44.666 23.3341C43.5385 22.539 42.351 21.8136 41.1538 21.1865C40.7095 20.9519 40.2659 20.7325 39.8246 20.5259C34.6679 18.1229 28.9611 18.5745 24.1661 21.7671C18.7821 25.3551 15.7368 31.6161 16.0179 38.5201C16.0179 38.5281 16.0307 38.8349 16.0307 38.8428C16.222 42.6007 17.0739 46.2528 18.5657 49.6953C19.2881 51.3576 20.1504 52.9502 21.141 54.4389C20.2689 58.4578 19.7476 64.2568 21.4228 70.8412C23.1645 77.6883 26.5844 82.5065 29.1475 85.3434C29.9652 86.2515 30.9516 86.9146 32.0742 87.3149C34.2835 88.102 36.6449 87.7616 38.5675 86.3676C40.5781 84.907 41.732 82.5095 41.6568 79.9568C41.5486 76.5033 41.9538 71.8245 44.4882 69.1477C45.1592 68.4406 46.4035 67.1218 47.8794 67.1218C49.3534 67.1218 50.5971 68.4406 51.2705 69.1502C53.8 71.8214 54.2077 76.5009 54.1019 79.9568C54.0274 82.512 55.1812 84.907 57.1912 86.3701C58.433 87.2709 59.86 87.7329 61.3109 87.7329C62.1005 87.7329 62.898 87.596 63.6772 87.3173C64.8053 86.9146 65.7911 86.2515 66.6063 85.3458C69.1694 82.512 72.5893 77.6981 74.3341 70.8436C74.8939 68.6551 75.2423 66.386 75.3743 64.0942C75.4592 62.6361 74.3445 61.3869 72.8888 61.3044C71.4276 61.2323 70.1815 62.3342 70.0984 63.7899C69.9853 65.7437 69.6883 67.6767 69.2134 69.5352C67.7345 75.3446 64.8487 79.4099 62.6859 81.8019C62.4567 82.0573 62.2013 82.2303 61.8963 82.339C61.1685 82.6024 60.583 82.2975 60.2988 82.094C59.703 81.6601 59.362 80.9218 59.3876 80.117C59.5814 73.631 58.1415 68.7193 55.1085 65.5188C54.1588 64.5123 51.6293 61.8361 47.8794 61.8361C44.127 61.8361 41.5975 64.5123 40.6478 65.5164C37.6123 68.7248 36.1725 73.6359 36.3711 80.117C36.3968 80.9218 36.0564 81.6601 35.4599 82.094C35.1763 82.295 34.5774 82.6024 33.8551 82.3366C33.5556 82.2303 33.3002 82.0573 33.0704 81.8019C30.9076 79.4068 28.0193 75.3367 26.5428 69.5352C24.9686 63.3487 25.6756 57.9725 26.5428 54.5502C26.7366 53.7887 26.582 52.9838 26.1224 52.3489C25.059 50.8852 24.1478 49.2828 23.4151 47.5918C22.1763 44.7347 21.4692 41.6999 21.3115 38.5745L18.6714 38.7084L21.2987 38.3032C21.0946 33.2601 23.2598 28.723 27.0978 26.1679C30.3135 24.0155 34.1441 23.7081 37.5891 25.316C37.9478 25.4816 38.3096 25.6594 38.6861 25.8605C39.6957 26.3897 40.6814 26.9935 41.6232 27.6548C45.4251 30.3334 50.3337 30.3285 54.1355 27.6548C55.0749 26.9935 56.0612 26.3897 57.0855 25.8531C57.4442 25.6619 57.8054 25.484 58.1672 25.316C60.5231 24.219 63.0526 24.0075 65.4965 24.6969C66.2244 24.9034 66.9394 25.1925 67.6263 25.5537C68.5803 26.0554 69.4438 26.7069 70.234 27.4494C63.3777 29.1973 58.2858 35.4058 58.2858 42.7993Z" fill="white"></path><path d="M74.1427 50.7275C75.6033 50.7275 76.7859 49.5456 76.7859 48.085V45.4418H79.4284C80.889 45.4418 82.0716 44.2599 82.0716 42.7987C82.0716 41.3381 80.889 40.1561 79.4284 40.1561H76.7859V37.513C76.7859 36.0524 75.6033 34.8704 74.1427 34.8704C72.6821 34.8704 71.4996 36.0524 71.4996 37.513V40.1561H68.857C67.3964 40.1561 66.2139 41.3381 66.2139 42.7987C66.2139 44.2599 67.3964 45.4418 68.857 45.4418H71.4996V48.085C71.4996 49.5456 72.6821 50.7275 74.1427 50.7275Z" fill="white"></path></g><defs><clipPath id="clip0_150_337"><rect width="105.98" height="105.98" fill="white" transform="translate(0 0.480469)"></rect></clipPath></defs></svg>

<?xml version="1.0" encoding="UTF-8"?>
<svg id="Layer_1" xmlns="http://www.w3.org/2000/svg" version="1.1" xmlns:xlink="http://www.w3.org/1999/xlink" viewBox="0 0 106 107">
  <!-- Generator: Adobe Illustrator 29.8.3, SVG Export Plug-In . SVG Version: 2.1.1 Build 3)  -->
  <defs>
    <style>
      .st0 {
        fill: #fff;
      }

      .st1 {
        fill: none;
      }

      .st2 {
        fill: #336799;
      }

      .st3 {
        clip-path: url(#clippath);
      }
    </style>
    <clipPath id="clippath">
      <rect class="st1" y=".48" width="105.98" height="105.98"/>
    </clipPath>
  </defs>
  <g class="st3">
    <g>
      <path class="st2" d="M52.99,106.47c29.27,0,52.99-23.73,52.99-52.99S82.26.48,52.99.48,0,24.21,0,53.47s23.73,52.99,52.99,52.99Z"/>
      <path class="st0" d="M58.29,42.8c0,8.74,7.11,15.86,15.86,15.86s15.86-7.11,15.86-15.86c0-3.46-1.1-6.75-3.17-9.52-.54-.71-1.14-1.39-1.79-2-1.06-1.01-2.73-.96-3.73.1-1,1.06-.96,2.73.1,3.73.44.42.84.87,1.2,1.35,1.38,1.84,2.11,4.03,2.11,6.34,0,5.83-4.74,10.57-10.57,10.57s-10.57-4.74-10.57-10.57,4.74-10.57,10.57-10.57c.17,0,.31-.07.47-.09.59.13,1.21.09,1.79-.21,1.29-.68,1.78-2.28,1.1-3.57-1.72-3.24-4.28-5.82-7.4-7.47-1.01-.53-2.07-.96-3.16-1.27-3.68-1.05-7.48-.73-11,.91-.44.21-.89.43-1.32.66-1.21.63-2.4,1.36-3.53,2.15-1.98,1.39-4.45,1.4-6.43,0-1.13-.8-2.31-1.52-3.51-2.15-.44-.23-.89-.45-1.33-.66-5.16-2.4-10.86-1.95-15.66,1.24-5.38,3.59-8.43,9.85-8.15,16.75,0,0,.01.31.01.32.19,3.76,1.04,7.41,2.53,10.85.72,1.66,1.58,3.25,2.58,4.74-.87,4.02-1.39,9.82.28,16.4,1.74,6.85,5.16,11.67,7.72,14.5.82.91,1.8,1.57,2.93,1.97,2.21.79,4.57.45,6.49-.95,2.01-1.46,3.16-3.86,3.09-6.41-.11-3.45.3-8.13,2.83-10.81.67-.71,1.92-2.03,3.39-2.03s2.72,1.32,3.39,2.03c2.53,2.67,2.94,7.35,2.83,10.81-.07,2.56,1.08,4.95,3.09,6.41,1.24.9,2.67,1.36,4.12,1.36.79,0,1.59-.14,2.37-.42,1.13-.4,2.11-1.07,2.93-1.97,2.56-2.83,5.98-7.65,7.73-14.5.56-2.19.91-4.46,1.04-6.75.08-1.46-1.03-2.71-2.49-2.79-1.46-.07-2.71,1.03-2.79,2.49-.11,1.95-.41,3.89-.88,5.75-1.48,5.81-4.36,9.87-6.53,12.27-.23.26-.48.43-.79.54-.73.26-1.31-.04-1.6-.24-.6-.43-.94-1.17-.91-1.98.19-6.49-1.25-11.4-4.28-14.6-.95-1.01-3.48-3.68-7.23-3.68s-6.28,2.68-7.23,3.68c-3.04,3.21-4.48,8.12-4.28,14.6.03.8-.31,1.54-.91,1.98-.28.2-.88.51-1.6.24-.3-.11-.55-.28-.78-.53-2.16-2.4-5.05-6.47-6.53-12.27-1.57-6.19-.87-11.56,0-14.99.19-.76.04-1.57-.42-2.2-1.06-1.46-1.97-3.07-2.71-4.76-1.24-2.86-1.95-5.89-2.1-9.02l-2.64.13,2.63-.41c-.2-5.04,1.96-9.58,5.8-12.14,3.22-2.15,7.05-2.46,10.49-.85.36.17.72.34,1.1.54,1.01.53,2,1.13,2.94,1.79,3.8,2.68,8.71,2.67,12.51,0,.94-.66,1.93-1.27,2.95-1.8.36-.19.72-.37,1.08-.54,2.36-1.1,4.89-1.31,7.33-.62.73.21,1.44.5,2.13.86.95.5,1.82,1.15,2.61,1.9-6.86,1.75-11.95,7.96-11.95,15.35Z"/>
      <path class="st0" d="M74.14,50.73c1.46,0,2.64-1.18,2.64-2.64v-2.64h2.64c1.46,0,2.64-1.18,2.64-2.64s-1.18-2.64-2.64-2.64h-2.64v-2.64c0-1.46-1.18-2.64-2.64-2.64s-2.64,1.18-2.64,2.64v2.64h-2.64c-1.46,0-2.64,1.18-2.64,2.64s1.18,2.64,2.64,2.64h2.64v2.64c0,1.46,1.18,2.64,2.64,2.64Z"/>
    </g>
  </g>
</svg>
